src/icons/eva/copy.svg

<svg xmlns="http://www.w3.org/2000/svg" viewBox="0 0 24 24"><defs><style>.cls-2{fill:#231f20}</style></defs><g id="Layer_2" data-name="Layer 2"><g id="copy"><g id="copy-2" data-name="copy"><path class="cls-2" d="M18 21h-6a3 3 0 0 1-3-3v-6a3 3 0 0 1 3-3h6a3 3 0 0 1 3 3v6a3 3 0 0 1-3 3zm-6-10a1 1 0 0 0-1 1v6a1 1 0 0 0 1 1h6a1 1 0 0 0 1-1v-6a1 1 0 0 0-1-1z"/><path class="cls-2" d="M9.73 15H5.67A2.68 2.68 0 0 1 3 12.33V5.67A2.68 2.68 0 0 1 5.67 3h6.66A2.68 2.68 0 0 1 15 5.67V9.4h-2V5.67a.67.67 0 0 0-.67-.67H5.67a.67.67 0 0 0-.67.67v6.66a.67.67 0 0 0 .67.67h4.06z"/></g></g></g></svg>

<svg xmlns="http://www.w3.org/2000/svg" viewBox="0 0 24 24"><defs><style>.cls-1{fill:#fff;opacity:0;}.cls-2{fill:#231f20;}</style></defs><title>copy</title><g id="Layer_2" data-name="Layer 2"><g id="copy"><g id="copy-2" data-name="copy"><rect class="cls-1" width="24" height="24"/><path class="cls-2" d="M18,21H12a3,3,0,0,1-3-3V12a3,3,0,0,1,3-3h6a3,3,0,0,1,3,3v6A3,3,0,0,1,18,21ZM12,11a1,1,0,0,0-1,1v6a1,1,0,0,0,1,1h6a1,1,0,0,0,1-1V12a1,1,0,0,0-1-1Z"/><path class="cls-2" d="M9.73,15H5.67A2.68,2.68,0,0,1,3,12.33V5.67A2.68,2.68,0,0,1,5.67,3h6.66A2.68,2.68,0,0,1,15,5.67V9.4H13V5.67A.67.67,0,0,0,12.33,5H5.67A.67.67,0,0,0,5,5.67v6.66a.67.67,0,0,0,.67.67H9.73Z"/></g></g></g></svg>
